X:1
T: Alexander Robertson Gourlay
C:Bruce Shawyer
R:Reel
Q:232
K:A
M:4/4
L:1/16
|:D2|"A"A4c4 E2A2c2A2|"E7"B4G4 E2G2B2c2|"Bm:d2c2B2A2 B2A2G2F2|"E7"G2A2B2G2 E4E4|
"A"A4c4 E2A2c2A2|"E7"B4G4 E2G2B2d2|"A"c2d2e2c2 "E7"d2c2B2e2|"A"c4A4 A6:|
|:d2|"A"c2d2e2f2 "E7"e4d4|"A"c2d2e2f2 "E7"e4d4|"A"c2d2e2f2 "F#m"e2f2g2a2|"Bm"b2a2g2f2 "E"e8|
"Bm"d2c2B2A2 B4c4|"E7"d2c2B2A2 G4E4|"A"c2d2e2c2 "E7"d2c2B2e2|"A"c4A4 A6:|
